src/svg/it-facebook-square.svg

<svg width="24px" height="24px" viewBox="0 0 24 24" version="1.1"
     xmlns="http://www.w3.org/2000/svg">
  <title>Logo Facebook Square</title>
  <g stroke="none" stroke-width="1">

    <g>
      <rect x="0" y="0" width="24" height="24"
            fill="none"></rect>
    </g>
    <g transform="translate(3.000000, 3.000000)">
      <path
        d="M17,0 L1,0 C0.44771525,0 0,0.44771525 0,1 L0,17 C0,17.5522847 0.44771525,18 1,18 L9.63,18 L9.63,11.05 L7.26,11.05 L7.26,8.31 L9.6,8.31 L9.6,6.31 C9.50300376,5.34649306 9.83672681,4.38936719 10.5117614,3.69504585 C11.1867961,3.00072451 12.1341435,2.64017789 13.1,2.71 C13.8050276,2.71038321 14.5094749,2.75044656 15.21,2.83 L15.21,5.27 L13.77,5.27 C12.64,5.27 12.43,5.8 12.43,6.59 L12.43,8.33 L15.13,8.33 L14.78,11.05 L12.43,11.05 L12.43,18.05 L17,18.05 C17.5522847,18.05 18,17.6022847 18,17.05 L18,17.05 L18,1 C18,0.44771525 17.5522847,0 17,0 Z"
      ></path>
    </g>
  </g>
</svg>

<?xml version="1.0" encoding="utf-8"?>
<!-- Generator: Adobe Illustrator 25.4.1, SVG Export Plug-In . SVG Version: 6.00 Build 0)  -->
<svg version="1.1" id="Livello_1" xmlns="http://www.w3.org/2000/svg" xmlns:xlink="http://www.w3.org/1999/xlink" x="0px" y="0px"
	 viewBox="0 0 24 24" style="enable-background:new 0 0 24 24;" xml:space="preserve">
<g transform="translate(3.000000, 3.000000)">
	<path d="M17,0H1C0.4,0,0,0.4,0,1v16c0,0.6,0.4,1,1,1h8.6v-6.9H7.3V8.3h2.3v-2c-0.1-1,0.2-1.9,0.9-2.6s1.6-1.1,2.6-1
		c0.7,0,1.4,0,2.1,0.1v2.4h-1.4c-1.1,0-1.3,0.5-1.3,1.3v1.7h2.7l-0.4,2.7h-2.3v7H17c0.6,0,1-0.4,1-1l0,0V1C18,0.4,17.6,0,17,0z"/>
</g>
</svg>
